X: 1
T: Jackson's
M: 6/8
L: 1/8
R: jig
K: Amaj
|:A2A cee|fec ecB|A2A cee|fec B2B|
A2A cee|fec efa|abf ecA|B2B cAF:|
|:aba gag|fgf ecA|aba gfe|fbb bag|
aba gag|fgf ecA|ABc ecA|B2B cAF:|
|:A2f ecA|c2c ecB|A2f ecA|B2B cAF|
A2f ecA|c2c efa|abf ecA|B2B cAF:|
